X: 921
T: Alister & Katrina's
R: jig
M: 6/8
K: Aminor
M:7/8
|:c2 de edc|cd AG GAc|c2 de fed|eg ae fed|
c2 e2 edc|cd AG GAE|(D2 D)E GAc|1 A2 cd egd:|2 A2 cd ega||
a2 ab c'ba|g2 ed deA|c2 AG GAc|d2 dc deg|
a2 ab c'ba|g2 ed deA|c2 AG dcA|de dc deg|
a2 ab c'ba|g2 ed deA|c2 AG GAc|d2 dc deg|
a2 ab c'ba|a/b/c' ba ged|c2 AG dcA|e2 ge dcA||

